icons/themes/default/rectangle-stack.svg

<svg width="16" height="16" viewBox="0 0 16 16" fill="none" xmlns="http://www.w3.org/2000/svg">
<path fill-rule="evenodd" clip-rule="evenodd" d="M9.16348 1.2286C8.79398 1.0959 8.40181 1.03833 8.00998 1.05914C7.61814 1.03833 7.22597 1.0959 6.85648 1.2286C6.47694 1.36489 6.12938 1.57756 5.83527 1.85346C5.54115 2.12936 5.30672 2.46263 5.14647 2.83268C4.98621 3.20274 4.90353 3.60173 4.90353 4.00499C4.90353 4.40826 4.98621 4.80724 5.14647 5.1773C5.30672 5.54736 5.54115 5.88063 5.83527 6.15653C6.12938 6.43243 6.47694 6.64509 6.85648 6.78139C7.22597 6.91408 7.61814 6.97165 8.00998 6.95084C8.40181 6.97165 8.79398 6.91408 9.16348 6.78139C9.54301 6.64509 9.89057 6.43243 10.1847 6.15653C10.4788 5.88063 10.7132 5.54736 10.8735 5.1773C11.0337 4.80724 11.1164 4.40826 11.1164 4.00499C11.1164 3.60173 11.0337 3.20274 10.8735 2.83268C10.7132 2.46263 10.4788 2.12936 10.1847 1.85346C9.89057 1.57756 9.54301 1.36489 9.16348 1.2286ZM7.19446 2.16975C7.44534 2.07965 7.71203 2.04195 7.97805 2.05897C7.99931 2.06033 8.02064 2.06033 8.0419 2.05897C8.30793 2.04195 8.57461 2.07965 8.82549 2.16975C9.07637 2.25984 9.30611 2.40042 9.50053 2.58279C9.69495 2.76517 9.84991 2.98546 9.95584 3.23008C10.0618 3.47469 10.1164 3.73843 10.1164 4.00499C10.1164 4.27156 10.0618 4.53529 9.95584 4.77991C9.84991 5.02452 9.69495 5.24482 9.50053 5.42719C9.30611 5.60957 9.07637 5.75014 8.82549 5.84024C8.57461 5.93033 8.30793 5.96803 8.0419 5.95101C8.02064 5.94965 7.99931 5.94965 7.97805 5.95101C7.71203 5.96803 7.44534 5.93033 7.19446 5.84024C6.94358 5.75014 6.71384 5.60957 6.51942 5.42719C6.32501 5.24482 6.17005 5.02452 6.06412 4.77991C5.95819 4.53529 5.90353 4.27156 5.90353 4.00499C5.90353 3.73843 5.95819 3.47469 6.06412 3.23008C6.17005 2.98546 6.32501 2.76517 6.51942 2.58279C6.71384 2.40042 6.94358 2.25984 7.19446 2.16975ZM8.00997 8.17999C5.53503 8.17999 3.40964 9.66329 2.47249 11.7882L2.47204 11.7892C2.02912 12.7996 2.58437 13.9599 3.61941 14.2868L3.61962 14.2868C6.47692 15.1878 9.5422 15.1878 12.3995 14.2871C13.4427 13.9615 14.0036 12.8008 13.5466 11.7863C12.609 9.66238 10.4842 8.17999 8.00997 8.17999ZM3.92033 13.3331C3.43567 13.1799 3.19102 12.6406 3.3877 12.1912C4.17067 10.4164 5.94513 9.17999 8.00997 9.17999C10.075 9.17999 11.8496 10.4167 12.6325 12.1917L12.6325 12.1918L12.6344 12.1959C12.8354 12.6406 12.5967 13.1782 12.1012 13.3326L12.0996 13.3331C9.43778 14.1724 6.58217 14.1724 3.92033 13.3331Z" fill="currentColor"/>
</svg>

<svg xmlns="http://www.w3.org/2000/svg" fill="none" viewBox="0 0 16 16">
  <path fill="currentColor" fill-rule="evenodd" d="M9.163 1.229a2.95 2.95 0 0 0-1.153-.17 2.95 2.95 0 1 0 0 5.892 2.95 2.95 0 0 0 1.153-5.722Zm-1.969.94c.251-.09.518-.127.784-.11a.5.5 0 0 0 .064 0 1.95 1.95 0 1 1 0 3.892.5.5 0 0 0-.064 0 1.95 1.95 0 0 1-.784-3.781ZM8.01 8.18a6.048 6.048 0 0 0-5.538 3.608v.001c-.443 1.01.112 2.17 1.147 2.498a14.6 14.6 0 0 0 8.78 0c1.044-.326 1.605-1.486 1.148-2.5A6.048 6.048 0 0 0 8.01 8.18Zm-4.09 5.153a.852.852 0 0 1-.532-1.142A5.048 5.048 0 0 1 8.01 9.18a5.048 5.048 0 0 1 4.623 3.012l.001.004a.838.838 0 0 1-.533 1.137H12.1a13.6 13.6 0 0 1-8.18 0Z" clip-rule="evenodd"/>
</svg>
